symbolic/32x32/mimetypes/audio-x-generic.svg

<svg xmlns="http://www.w3.org/2000/svg" width="32" height="32" version="1.1">
 <path style="opacity:0.2" d="M 6.375,3 C 5.61325,3 5,3.6244 5,4.4 V 29.6 C 5,30.37504 5.61325,31 6.375,31 h 19.25 C 26.3862,31 27,30.37504 27,29.6 V 12 L 20,10 18,3 Z"/>
 <path style="fill:#fe9700" d="M 6.375,2 C 5.61325,2 5,2.6244 5,3.4 V 28.6 C 5,29.37504 5.61325,30 6.375,30 h 19.25 C 26.3862,30 27,29.37504 27,28.6 V 11 L 20,9 18,2 Z"/>
 <path style="opacity:0.2" d="M 27,12 18,3 v 7.59375 C 18,11.373375 18.62775,12 19.40625,12 Z"/>
 <path style="fill:#ffbd63" d="M 27,11 18,2 V 9.59375 C 18,10.373375 18.62775,11 19.40625,11 Z"/>
 <path style="opacity:0.2;fill:#ffffff" d="M 6.375,2 C 5.61325,2 5,2.6247906 5,3.4003906 v 1 C 5,3.6247906 5.61325,3 6.375,3 H 18 V 2 Z"/>
 <path style="opacity:0.2" d="m 12.999979,15.000009 -4.4e-5,0.5 v 6.5 c 0,0 -0.15572,3.85e-4 -0.49996,-9e-6 -1.3807,0 -2.5,1.1193 -2.5,2.5 0,1.3807 1.1193,2.5 2.5,2.5 1.3622,-8.35e-4 2.473,-1.0921 2.498,-2.4541 l 0.002,-0.0039 V 18 h 5 v 4 c 0,0 -0.15572,3.94e-4 -0.49995,0 -1.3807,0 -2.5,1.1193 -2.5,2.5 0,1.3807 1.1193,2.5 2.5,2.5 1.3311,-0.0015 2.4276,-1.0456 2.4941,-2.375 l 0.0059,-0.01172 v -9.6133 h -9 z"/>
 <path style="fill:#ffffff" d="m 12.999979,14.000009 -4.4e-5,0.5 v 6.5 c 0,0 -0.15572,3.85e-4 -0.49996,-9e-6 -1.3807,0 -2.5,1.1193 -2.5,2.5 0,1.3807 1.1193,2.5 2.5,2.5 1.3622,-8.35e-4 2.473,-1.0921 2.498,-2.4541 l 0.002,-0.0039 V 17 h 5 v 4 c 0,0 -0.15572,3.94e-4 -0.49995,0 -1.3807,0 -2.5,1.1193 -2.5,2.5 0,1.3807 1.1193,2.5 2.5,2.5 1.3311,-0.0015 2.4276,-1.0456 2.4941,-2.375 l 0.0059,-0.01172 v -9.6133 h -9 z"/>
</svg>

<svg xmlns="http://www.w3.org/2000/svg" width="32" height="32"><path style="opacity:.2" d="M6.375 3C5.613 3 5 3.624 5 4.4v25.2c0 .775.613 1.4 1.375 1.4h19.25c.761 0 1.375-.625 1.375-1.4V12l-7-2-2-7z"/><path style="fill:#fe9700" d="M6.375 2C5.613 2 5 2.624 5 3.4v25.2c0 .775.613 1.4 1.375 1.4h19.25c.761 0 1.375-.625 1.375-1.4V11l-7-2-2-7z"/><path style="opacity:.2" d="m27 12-9-9v7.594c0 .78.628 1.406 1.406 1.406z"/><path style="fill:#ffbd63" d="m27 11-9-9v7.594c0 .78.628 1.406 1.406 1.406z"/><path style="opacity:.2;fill:#fff" d="M6.375 2C5.613 2 5 2.625 5 3.4v1C5 3.625 5.613 3 6.375 3H18V2z"/><path style="opacity:.2" d="M13 15v7h-.5a2.5 2.5 0 1 0 2.498 2.546l.002-.004V18h5v4h-.5a2.5 2.5 0 0 0 0 5 2.5 2.5 0 0 0 2.494-2.375l.006-.012V15h-9z"/><path style="fill:#fff" d="M13 14v7h-.5a2.5 2.5 0 1 0 2.498 2.546l.002-.004V17h5v4h-.5a2.5 2.5 0 0 0 0 5 2.5 2.5 0 0 0 2.494-2.375l.006-.012V14h-9z"/></svg>
